Sources/FrostedUI/Resources/Icons.xcassets/eye16.imageset/eye-16.svg

<svg width="16" height="16" viewBox="0 0 16 16" fill="none" xmlns="http://www.w3.org/2000/svg" data-fui-icon="true">
  <path
    d="M8.22559 1.00488C8.25463 1.00604 8.28361 1.00914 8.3125 1.01074C8.3281 1.01161 8.34382 1.0117 8.35938 1.0127C8.57099 1.02621 8.77828 1.05204 8.98145 1.08789C8.99413 1.09013 9.00688 1.0924 9.01953 1.09473C9.22342 1.13213 9.42299 1.17976 9.61816 1.2373C9.62634 1.23971 9.63442 1.24267 9.64258 1.24512C9.69841 1.26184 9.75349 1.28058 9.80859 1.29883C9.87816 1.32185 9.94723 1.34576 10.0156 1.37109C10.0736 1.39259 10.1313 1.41441 10.1885 1.4375C10.2599 1.46634 10.3303 1.49712 10.4004 1.52832C10.4381 1.54512 10.4764 1.56066 10.5137 1.57812C10.5164 1.57942 10.5197 1.57977 10.5225 1.58105C10.5288 1.58404 10.5348 1.58865 10.541 1.5918C11.78 2.17835 12.8076 3.11977 13.5986 4.04297C13.9292 4.42881 14.2268 4.82144 14.4902 5.19824C14.495 5.2046 14.5003 5.21123 14.5049 5.21777C14.614 5.37436 14.7163 5.52895 14.8135 5.67871C14.8468 5.72999 14.8793 5.78083 14.9111 5.83105C14.9678 5.92044 15.0221 6.0082 15.0742 6.09375C15.1185 6.16633 15.1612 6.23731 15.2021 6.30664C15.2485 6.38514 15.2929 6.46137 15.335 6.53516C15.4676 6.76771 15.5779 6.97566 15.667 7.14844C15.7659 7.34018 15.8398 7.48911 15.8838 7.58301L15.8848 7.58594L15.9268 7.69043C15.9442 7.74232 15.9555 7.79505 15.9639 7.84766C15.9662 7.86226 15.969 7.87688 15.9707 7.8916C15.9714 7.89743 15.9721 7.90335 15.9727 7.90918C15.9755 7.93926 15.9765 7.96961 15.9766 8C15.9765 8.01893 15.9748 8.03782 15.9736 8.05664C15.9727 8.07254 15.9724 8.08858 15.9707 8.10449C15.969 8.12018 15.9663 8.13581 15.9639 8.15137C15.9552 8.20665 15.9426 8.26194 15.9238 8.31641C15.9121 8.35069 15.8992 8.38512 15.8838 8.41797C15.8398 8.51176 15.7655 8.65953 15.667 8.85059C15.5865 9.00665 15.4891 9.1918 15.373 9.39746C15.3193 9.49277 15.2614 9.59261 15.2002 9.69629C15.1682 9.75038 15.1345 9.80524 15.1006 9.86133C15.0361 9.9678 14.9681 10.0778 14.8965 10.1904C14.8699 10.2323 14.843 10.2748 14.8154 10.3174C14.7175 10.4684 14.615 10.6252 14.5049 10.7832C14.5 10.7902 14.4933 10.796 14.4883 10.8027C14.2251 11.179 13.9287 11.5718 13.5986 11.957C12.8076 12.8802 11.78 13.8217 10.541 14.4082C10.5348 14.4114 10.5288 14.416 10.5225 14.4189C10.5193 14.4204 10.5158 14.4214 10.5127 14.4229C10.4848 14.4359 10.4559 14.4473 10.4277 14.46C10.343 14.4981 10.2576 14.5356 10.1709 14.5703C10.1222 14.5898 10.0727 14.6076 10.0234 14.626C9.95251 14.6524 9.88079 14.6773 9.80859 14.7012C9.75351 14.7194 9.69838 14.7382 9.64258 14.7549C9.63445 14.7573 9.62631 14.7603 9.61816 14.7627C9.42301 14.8202 9.22339 14.8679 9.01953 14.9053C9.0069 14.9076 8.99411 14.9099 8.98145 14.9121C8.77829 14.948 8.57098 14.9738 8.35938 14.9873C8.34383 14.9883 8.32809 14.9884 8.3125 14.9893C8.20932 14.995 8.10515 15 8 15C7.89454 15 7.79001 14.995 7.68652 14.9893C7.67093 14.9884 7.6552 14.9883 7.63965 14.9873C7.42738 14.9737 7.21938 14.9482 7.01562 14.9121C7.0049 14.9102 6.9941 14.9082 6.9834 14.9062C6.77816 14.8687 6.57728 14.8206 6.38086 14.7627C6.37269 14.7603 6.3646 14.7573 6.35645 14.7549C6.30062 14.7382 6.24553 14.7194 6.19043 14.7012C6.12087 14.6781 6.05178 14.6543 5.9834 14.6289C5.92543 14.6074 5.86768 14.5856 5.81055 14.5625C5.73913 14.5337 5.6687 14.5029 5.59863 14.4717C5.56094 14.4549 5.52267 14.4393 5.48535 14.4219C5.48285 14.4207 5.48003 14.4201 5.47754 14.4189C5.47094 14.4158 5.46448 14.4115 5.45801 14.4082C4.21935 13.8216 3.19227 12.88 2.40137 11.957C2.06525 11.5648 1.7628 11.1658 1.49609 10.7832L1.49512 10.7822C1.38614 10.6259 1.28357 10.4718 1.18652 10.3223C1.15284 10.2704 1.12011 10.2188 1.08789 10.168C1.02583 10.0701 0.966768 9.9741 0.910156 9.88086C0.871203 9.81671 0.833215 9.75395 0.796875 9.69238C0.736543 9.59016 0.680032 9.49152 0.626953 9.39746C0.509807 9.18987 0.410997 9.00367 0.330078 8.84668C0.232635 8.65764 0.159832 8.51108 0.116211 8.41797C0.11564 8.41675 0.114825 8.41527 0.114258 8.41406C0.0742612 8.32852 0.050049 8.23984 0.0361328 8.15137C0.0336621 8.1358 0.0310197 8.12019 0.0292969 8.10449C0.02759 8.08857 0.0272735 8.07255 0.0263672 8.05664C0.0252385 8.03782 0.0234729 8.01893 0.0234375 8C0.023484 7.96961 0.0244844 7.93925 0.0273438 7.90918C0.0278843 7.90336 0.0286468 7.89743 0.0292969 7.8916C0.0309674 7.87689 0.0337979 7.86225 0.0361328 7.84766C0.0500825 7.75953 0.0744289 7.67116 0.114258 7.58594L0.15918 7.49609C0.201846 7.40721 0.258715 7.29078 0.330078 7.15234C0.41957 6.97874 0.531369 6.76959 0.665039 6.53516C0.707016 6.46153 0.75065 6.38495 0.796875 6.30664C0.837862 6.23721 0.881473 6.16644 0.925781 6.09375C0.977817 6.00838 1.03134 5.92025 1.08789 5.83105C1.12009 5.78027 1.15287 5.72862 1.18652 5.67676C1.19911 5.65736 1.21182 5.6377 1.22461 5.61816L1.49512 5.21777C1.76198 4.8349 2.06497 4.43559 2.40137 4.04297C3.19225 3.12 4.2194 2.17837 5.45801 1.5918C5.46444 1.58855 5.47098 1.58415 5.47754 1.58105C5.48 1.5799 5.48288 1.57925 5.48535 1.57812C5.52264 1.56067 5.56097 1.54511 5.59863 1.52832C5.66867 1.49713 5.73916 1.46634 5.81055 1.4375C5.86765 1.41441 5.92546 1.39258 5.9834 1.37109C6.05176 1.34576 6.1209 1.32186 6.19043 1.29883C6.24551 1.28059 6.30064 1.26184 6.35645 1.24512C6.36458 1.24268 6.37271 1.23972 6.38086 1.2373C6.57726 1.17937 6.77818 1.13128 6.9834 1.09375C6.99409 1.09179 7.00491 1.08979 7.01562 1.08789C7.21938 1.05184 7.42739 1.02628 7.63965 1.0127C7.6552 1.01169 7.67093 1.01161 7.68652 1.01074C7.79001 1.00499 7.89454 1 8 1L8.22559 1.00488ZM8 2.5C7.87013 2.5 7.74151 2.50746 7.61426 2.51953C7.5343 2.52708 7.45482 2.53676 7.37598 2.54883C7.1403 2.58505 6.90946 2.64131 6.68359 2.71484C6.61059 2.73862 6.5378 2.76364 6.46582 2.79102C6.44333 2.79956 6.42082 2.8085 6.39844 2.81738C6.31911 2.84891 6.24018 2.88228 6.16211 2.91797C5.1717 3.37015 4.28935 4.14501 3.54004 5.01953C3.074 5.56348 2.67923 6.12436 2.36133 6.625C2.2943 6.73055 2.22998 6.83313 2.16992 6.93262C2.1465 6.97143 2.12392 7.01011 2.10156 7.04785C1.9142 7.36416 1.76477 7.64144 1.65527 7.85449C1.62844 7.9067 1.60504 7.95579 1.58301 8C1.60494 8.04402 1.62858 8.09258 1.65527 8.14453C1.76247 8.35313 1.90785 8.62337 2.08984 8.93164C2.11588 8.97575 2.14241 9.02082 2.16992 9.06641C2.21825 9.14647 2.26941 9.22841 2.32227 9.3125C2.6467 9.82872 3.05452 10.4138 3.54004 10.9805C4.28928 11.8549 5.17181 12.6289 6.16211 13.0811C6.24022 13.1168 6.31907 13.1501 6.39844 13.1816C6.42085 13.1905 6.4433 13.1994 6.46582 13.208C6.54565 13.2384 6.62594 13.267 6.70703 13.293C6.92537 13.3628 7.14851 13.4152 7.37598 13.4502C7.45485 13.4623 7.53427 13.4719 7.61426 13.4795C7.64736 13.4826 7.68058 13.4859 7.71387 13.4883C7.80845 13.4949 7.90386 13.5 8 13.5C8.09582 13.5 8.19088 13.4948 8.28516 13.4883C8.31844 13.4859 8.35166 13.4826 8.38477 13.4795C8.46475 13.472 8.54418 13.4622 8.62305 13.4502C8.84541 13.4161 9.0637 13.3653 9.27734 13.2979C9.3687 13.269 9.45908 13.2366 9.54883 13.2021C9.56695 13.1952 9.58546 13.1888 9.60352 13.1816C9.68201 13.1504 9.75965 13.1164 9.83691 13.0811C10.8275 12.6289 11.7105 11.8551 12.46 10.9805C12.919 10.4447 13.3086 9.89232 13.624 9.39746C13.6977 9.28189 13.7667 9.16894 13.832 9.06055C13.8584 9.01677 13.8851 8.97405 13.9102 8.93164C14.092 8.6236 14.2366 8.35306 14.3438 8.14453C14.3704 8.09262 14.3941 8.044 14.416 8C14.394 7.95575 14.3706 7.90674 14.3438 7.85449C14.2342 7.64139 14.0849 7.36419 13.8975 7.04785C13.8762 7.01188 13.8543 6.97541 13.832 6.93848C13.7642 6.82599 13.692 6.70904 13.6152 6.58887C13.3013 6.0975 12.9148 5.5504 12.46 5.01953C11.7104 4.14474 10.8277 3.37009 9.83691 2.91797C9.7588 2.88228 9.67995 2.84891 9.60059 2.81738C9.57817 2.80849 9.55572 2.79957 9.5332 2.79102C9.45338 2.76067 9.37309 2.73196 9.29199 2.70605C9.07367 2.63632 8.8505 2.58373 8.62305 2.54883C8.54419 2.53678 8.46474 2.52706 8.38477 2.51953C8.35166 2.5164 8.31844 2.51308 8.28516 2.51074C8.19089 2.50418 8.09581 2.5 8 2.5ZM8 4C10.2091 4.00004 11.9999 5.79094 12 8C11.9999 10.2091 10.2091 12 8 12C5.79096 11.9999 4.00007 10.209 4 8C4.00006 5.79095 5.79095 4.00007 8 4ZM8 5.5C6.61938 5.50007 5.50006 6.61938 5.5 8C5.50007 9.38062 6.61939 10.4999 8 10.5C9.38063 10.5 10.4999 9.38063 10.5 8C10.4999 6.61936 9.38064 5.50004 8 5.5Z"
    fill="currentColor"
  />
</svg>

<svg xmlns="http://www.w3.org/2000/svg" width="16" height="16" fill="none" data-fui-icon="true" viewBox="0 0 16 16"><path fill="currentColor" d="M8.226 1.005q.044.002.086.006.024 0 .047.002a5.7 5.7 0 0 1 1.26.224l.024.008.166.054a6 6 0 0 1 .591.23q.057.024.114.05.004 0 .009.002.009.006.018.01c1.239.587 2.267 1.529 3.058 2.452.33.386.628.778.891 1.155l.015.02a17 17 0 0 1 .697 1.089 17 17 0 0 1 .465.841c.099.192.173.341.217.435v.003l.043.104a1 1 0 0 1 .037.158l.007.044a1 1 0 0 1 .006.108l-.003.057-.003.047-.007.047a1 1 0 0 1-.08.267 15 15 0 0 1-.217.433 16 16 0 0 1-.467.845l-.1.165q-.096.16-.203.33l-.082.126q-.146.228-.31.466l-.017.02c-.263.376-.56.769-.89 1.154-.79.923-1.818 1.865-3.057 2.451q-.009.006-.018.01l-.01.005-.085.037q-.127.058-.257.11-.073.03-.148.056-.106.039-.214.075-.082.028-.166.054l-.025.008a6 6 0 0 1-1.259.224l-.046.002Q8.156 15 8 15a6 6 0 0 1-.313-.01l-.047-.003a5.6 5.6 0 0 1-1.26-.224l-.024-.008-.166-.054a6 6 0 0 1-.591-.23q-.057-.024-.114-.05-.004 0-.007-.002l-.02-.01c-1.239-.587-2.266-1.529-3.057-2.452a15 15 0 0 1-.905-1.174 17 17 0 0 1-.869-1.386 17 17 0 0 1-.51-.979l-.003-.004a1 1 0 0 1-.078-.263L.03 8.104l-.003-.047Q.024 8.027.023 8q0-.045.004-.09l.002-.018.007-.044a1 1 0 0 1 .078-.262l.045-.09q.064-.135.171-.344c.09-.173.201-.382.335-.617l.132-.228q.06-.104.129-.213.077-.13.162-.263l.099-.154.038-.059.27-.4c.267-.383.57-.782.906-1.175.791-.923 1.818-1.865 3.057-2.451l.02-.011.007-.003.114-.05a7 7 0 0 1 .384-.157q.103-.038.207-.072.083-.028.166-.054l.025-.008q.294-.087.602-.143l.033-.006a6 6 0 0 1 .624-.075l.047-.002Q7.842 1 8 1zM8 2.5a4 4 0 0 0-.624.049 4.4 4.4 0 0 0-.91.242l-.068.026a5 5 0 0 0-.236.101C5.172 3.37 4.29 4.145 3.54 5.02c-.466.543-.86 1.104-1.179 1.605q-.1.159-.191.308l-.068.115c-.188.316-.337.593-.447.806L1.583 8l.072.145c.107.208.253.478.435.787l.08.134q.073.12.152.246c.325.517.733 1.102 1.218 1.668.75.875 1.632 1.649 2.622 2.101a5 5 0 0 0 .545.212 4.4 4.4 0 0 0 .907.187l.1.008q.142.011.286.012.143 0 .285-.012l.1-.008a4.2 4.2 0 0 0 .892-.182q.138-.043.272-.096l.055-.02q.117-.049.233-.1c.99-.453 1.874-1.227 2.623-2.102a14 14 0 0 0 1.372-1.92l.078-.128c.182-.308.327-.579.434-.787L14.416 8l-.072-.146a16 16 0 0 0-.729-1.265c-.314-.492-.7-1.039-1.155-1.57-.75-.874-1.632-1.649-2.623-2.101a5 5 0 0 0-.236-.1l-.068-.027q-.12-.046-.241-.085a4.4 4.4 0 0 0-.907-.186l-.1-.01A4 4 0 0 0 8 2.5M8 4a4 4 0 1 1 0 8 4 4 0 0 1 0-8m0 1.5a2.5 2.5 0 1 0 0 5 2.5 2.5 0 0 0 0-5"/></svg>
